svgs/sharp-light/box.svg

<svg xmlns="http://www.w3.org/2000/svg" viewBox="0 0 448 512"><!--! Font Awesome Pro 6.4.2 by @fontawesome - https://fontawesome.com License - https://fontawesome.com/license (Commercial License) Copyright 2023 Fonticons, Inc. --><path d="M84.8 64H208v96H42.1L84.8 64zM240 192H416V448H32V192H208h32zm165.9-32H240V64H363.2l42.7 96zM384 32H64L0 176V448v32H32 416h32V448 176L384 32z"/></svg>

<svg xmlns="http://www.w3.org/2000/svg" viewBox="0 0 448 512"><!--! Font Awesome Pro 6.6.0 by @fontawesome - https://fontawesome.com License - https://fontawesome.com/license (Commercial License) Copyright 2024 Fonticons, Inc. --><path d="M84.8 64L208 64l0 96L42.1 160 84.8 64zM240 192l176 0 0 256L32 448l0-256 176 0 32 0zm165.9-32L240 160l0-96 123.2 0 42.7 96zM384 32L64 32 0 176 0 448l0 32 32 0 384 0 32 0 0-32 0-272L384 32z"/></svg>
